icons/all-servers-16.svg

<?xml version="1.0" encoding="UTF-8"?><svg id="icons" xmlns="http://www.w3.org/2000/svg" viewBox="0 0 16 16"><path d="M7,7v1h1v-1h-1Zm-2,0v1h1v-1h-1Zm-2,0v1h1v-1h-1ZM7,3v1h1v-1h-1Zm-2,1h1v-1h-1v1Zm-2,0h1v-1h-1v1Zm4,3v1h1v-1h-1Zm-2,1h1v-1h-1v1Zm-2,0h1v-1h-1v1Zm12,2V1H1V10H10v2h-1v1H2v1h7v1h3v-1h2v-1h-2v-1h-1v-2h4ZM2,2H14v3H2V2ZM11,14h-1v-1h1v1ZM2,9v-3H14v3H2Zm5-1h1v-1h-1v1Zm0-4h1v-1h-1v1Zm-2,4h1v-1h-1v1Zm0-4h1v-1h-1v1Zm-2,4h1v-1h-1v1Zm0-4h1v-1h-1v1Zm4-1v1h1v-1h-1Zm-2,0v1h1v-1h-1Zm-2,0v1h1v-1h-1Z"/><path fill="none" d="M0 0h16v16H0z"/></svg>

<svg xmlns="http://www.w3.org/2000/svg" viewBox="0 0 16 16"><path d="M7 7v1h1V7H7zM5 7v1h1V7H5zM3 7v1h1V7H3zm4-4v1h1V3H7zM5 4h1V3H5v1zM3 4h1V3H3v1zm4 3v1h1V7H7zM5 8h1V7H5v1zM3 8h1V7H3v1zm12 2V1H1v9h9v2H9v1H2v1h7v1h3v-1h2v-1h-2v-1h-1v-2h4zM2 2h12v3H2V2zm9 12h-1v-1h1v1zM2 9V6h12v3H2zm5-1h1V7H7v1zm0-4h1V3H7v1zM5 8h1V7H5v1zm0-4h1V3H5v1zM3 8h1V7H3v1zm0-4h1V3H3v1zm4-1v1h1V3H7zM5 3v1h1V3H5zM3 3v1h1V3H3z"/><path fill="none" d="M0 0h16v16H0z"/></svg>
